X: 3051
T: Hija Mia - El Adon
Z: Temple Aliyah Klezmer Band Song Book
F: https://www.youtube.com/watch?v=D2efAWPFjm8
F: https://vimeo.com/35900713
M: 2/4
L: 1/8
K: Em clef=treble
"Em"zc BA|G2 "Am"A2|z B AG|F2 "Em"G2|z A GE|F2 G2|
AG "Dm"=FE|"Em" z E/F/ G/A/B|"C" z B/c/ BA|G/A/B/G/ "Am" A2|z A/G/ AG|
"Am"F/G/A/F/ "Em" E2|z G/A/ G=F|E2 =FG|"Dm"AG =FE|ED/C/ B,/A,/G,/F,/|
M: 4/4
L: 1/8
"Em" EBBB BBBB|AB/A/ GA B2 B2|\
d^cdc dc B2|AB/A/ GA B3 c|BA G2 "Am"A2 z B|
AG F2 "Em"G3A|[M:2/4] GE =F2|[M:3/4] G2 "Dm" AGE=F|
M: 4/4
L: 1/8
"Em" E2 z c BA G2|"Am" A2 z B AG F2|\
"Em" G2 z A GE =F2|[M:3/4]G2 "Dm"AG=FE|[M:2/4]"Em" E4|
